public/assets/images/icons/white/vcard.svg

<svg width="16" height="16" xmlns="http://www.w3.org/2000/svg" viewBox="0 0 54 54"><path d="M3 10v34h48V10Zm8 31v-4.79A1.23 1.23 0 0 1 12.24 35h11.52A1.24 1.24 0 0 1 25 36.21V41Zm37 0H28v-4.79A4.24 4.24 0 0 0 23.76 32H12.24A4.24 4.24 0 0 0 8 36.21V41H6V13h42Z" fill="#fff"/><path d="M18.1 31a7 7 0 1 0-7-7 7 7 0 0 0 7 7Zm0-10.91A3.91 3.91 0 1 1 14.2 24a3.92 3.92 0 0 1 3.9-3.94ZM31 17.97h14v4H31zm0 7h14v4H31z" fill="#fff"/></svg>

<svg width="16" height="16" xmlns="http://www.w3.org/2000/svg" viewBox="0 0 54 54"><defs><style>.a{fill:#ffffff;}</style></defs><path class="a" d="M3,10V44H51V10Zm8,31V36.21A1.23,1.23,0,0,1,12.24,35H23.76A1.24,1.24,0,0,1,25,36.21V41Zm37,0H28V36.21A4.24,4.24,0,0,0,23.76,32H12.24A4.24,4.24,0,0,0,8,36.21V41H6V13H48Z"/><path class="a" d="M18.1,31a7,7,0,1,0-7-7A7,7,0,0,0,18.1,31Zm0-10.91A3.91,3.91,0,1,1,14.2,24,3.92,3.92,0,0,1,18.1,20.06Z"/><rect class="a" x="31" y="17.97" width="14" height="4"/><rect class="a" x="31" y="24.97" width="14" height="4"/></svg>
